X:1
T: Sleepy Bodie
C:
R:Jig
Q:180
K:F
M:6/8
L:1/16
|:F2|A2c4 A2f2d2|c2B2A2 G2A2B2|A2B2c2 A2f2d2|c6 F4F2|
A2B2c2 A2f2d2|c2B2A2 G2A2B2|A2B2c2 A2f2d2|c6F4:|
|:de|f2e2d2 c2B2A2|B2c2A2 G4de|f2e2d2 c2A2c2|f6c4de|
f2e2d2 c2B2A2|B2c2A2 G4B2|A2B2c2 A2f2d2|c6F4:|
